!!!!SEGMENT: pl-wtm--r-1330_stefani-jozef--polka.krn
!!!id: 18xx:1837
!!!COM: Stefani, Józef
!!!COM-rism: pe30024097
!!!CDT: 1800/04/16-1876/03/19
!!!CNT: Polish
!!!OTL: Polka
!!!PDT:
!!!SMS-siglum: PL-Wtm
!!!SMS-shelfmark: R 1330
!!!NIFC-rismID: 1001119006
!!!URL-scan: http://repozytorium.nifc.pl/skany/pl-wtm-nut--r1330
!!!ONB-nifc: UWAGA: Wstęp do Polki + Polka razem
!!!SMS-variant:
!!!SMS-altvar:
!!!OMD: Allegro
**kern	**kern	**dynam
*part1	*part1	*part1
*staff2	*staff1	*
*I"Fortepian	*I"Fortepian	*
*>[A,B,C,C,D,E,E,C,D,E,F]	*>[A,B,C,C,D,E,E,C,D,E,F]	*>[A,B,C,C,D,E,E,C,D,E,F]
*>A	*>A	*>A
*clefF4	*clefG2	*
*k[b-]	*k[b-]	*
*M3/4	*M3/4	*
*all\right	*all\right	*
*	*^	*
!	!LO:TX:a:t=Wstęp do Polki	!	!LO:DY:rj
8d-X\L	8bn'/L	8a-XL 8f\	f
8c\	8cc'/	8a- 8f\	.
8Bn\J	8dd'/J	8a-J 8f\	.
=1	=1	=1	=1
4c\	4cc/	4a-X 4f\	.
4r	4r	4rcyy	.
4c 4C\	4ee 4b- 4g\	4rcyy	.
*	*v	*v	*
=2	=2	=2
4c 4F\	4ff 4a-X 4f\	.
4r	4r	.
4B- 4BB-\	4gg 4ff 4dd-X\	.
!!LO:LB:g=original
=3	=3	=3
4c 4C\	4aa-X 4ff 4cc\	.
.	(16qqddd-X/LL	.
.	16qqccc/	.
.	16qqbbn/JJ	.
4r	4ccc\)	.
4r	4r	.
=4	=4	=4
4c 4C\	4gg 4ee 4cc\	.
.	(16qqddd-X/LL	.
.	16qqccc/	.
.	16qqbbn/JJ	.
4r	4ccc\)	.
!LO:TX:a:i:t=Seque Polka.	!	!
4r;	4r;	.
!!LO:PB:g=original
=5||	=5||	=5||
*>B	*>B	*>B
*M2/4	*M2/4	*
!	!LO:TX:a:i:t=Polka.	!
.	(8qd/	.
!	!	!LO:DY:rj
8C\L	8c/L)	p
8B-J 8E\	8c'/J	.
.	(8qa/	.
*rep	*	*
8C\L	4b-/)	.
8B-J 8E\	.	.
*Xrep	*	*
=6	=6	=6
8C\L	(8.g/L	.
8B-J 8E\	.	.
.	32a/LL	.
.	32g/JJJ)	.
4A 4F\	4f/	.
=7	=7	=7
8C\L	8e'/L	.
8B-J 8E\	8g'/	.
*rep	*	*
8C\L	(8dd/	.
8B-J 8E\	8cc/J)	.
*Xrep	*	*
=8	=8	=8
8C\L	8a'\L	.
8AJ 8F\	8cc'\	.
*rep	*	*
8C\L	(8gg\	.
8AJ 8F\	8ff\J)	.
*Xrep	*	*
=9	=9	=9
.	(8qd/	.
8C\L	8c/L)	.
8B-J 8E\	8c'/J	.
.	(8qa/	.
*rep	*	*
8C\L	4b-/)	.
8B-J 8E\	.	.
*Xrep	*	*
!!LO:LB:g=original
=10	=10	=10
8C\L	(8.g/L	.
8B-J 8E\	.	.
.	32a/LL	.
.	32g/JJJ	.
4A 4F\	4f/)	.
=11	=11	=11
8C\L	8e'/L	.
8cJ 8B- 8E\	8g'/	.
*rep	*	*
8C\L	(8dd/	.
8cJ 8B- 8E\	8cc/J)	.
*Xrep	*	*
=12	=12	=12
8F\L	(<16a/LL	.
.	16f/	.
8cJ 8A\	16a/	.
.	16cc/JJ	.
!	!LO:TX:t=[segno]:problem:znak segno na kresce taktowej	!
4F\	4ff\)	.
=13!|:	=13!|:	=13!|:
*>C	*>C	*>C
!	!	!LO:DY:rj
8BB-\L	8ddL 8b- 8f\	f
8dJ 8B- 8F\	8dd\J	.
*rep	*	*
8BB-\L	4ffT\	.
8dJ 8B- 8F\	.	.
.	(16qqee/LL	.
.	16qqff/JJ)	.
*Xrep	*	*
=14	=14	=14
8AA\L	8ccL 8f/	.
8cJ 8F\	8cc/J	.
*rep	*	*
8AA\L	4ffT\	.
8cJ 8F\	.	.
.	(16qqee/LL	.
.	16qqff/JJ)	.
*Xrep	*	*
!!LO:LB:g=original
=15	=15	=15
8C\L	(16ee\LL	.
.	16dd\	.
8cJ 8B- 8G\	16cc\	.
.	16b-\JJ	.
*rep	*	*
8C\L	16a/LL	.
.	16g/	.
8cJ 8B- 8G\	16f/	.
.	16e/JJ)	.
*Xrep	*	*
=16	=16	=16
8F\L	8f/L	.
8cJ 8A\	8a/J	.
*rep	*	*
8F\L	4ccT\	.
8cJ 8A\	.	.
.	(16qqbn/LL	.
.	16qqcc/JJ)	.
*Xrep	*	*
=17	=17	=17
8BB-\L	8ddL 8b- 8f/	.
8dJ 8B- 8F\	8dd/J	.
*rep	*	*
8BB-\L	4ffT\	.
8dJ 8B- 8F\	.	.
.	(16qqee/LL	.
.	16qqff/JJ)	.
*Xrep	*	*
=18	=18	=18
8AA\L	8ccL 8f/	.
8cJ 8F\	8cc/J	.
*rep	*	*
8AA\L	4ffT\	.
8cJ 8F\	.	.
.	(16qqee/LL	.
.	16qqff/JJ)	.
*Xrep	*	*
=19	=19	=19
8C\L	(16ee\LL	.
.	16ff\	.
8cJ 8B- 8G\	16gg\	.
.	16aa\JJ	.
*rep	*	*
8C\L	16bb-\LL	.
.	16ccc\	.
8cJ 8B- 8G\	16ddd\	.
.	16eee\JJ)	.
*Xrep	*	*
!!LO:LB:g=original
=20	=20	=20
8cL 8A 8F\	8fff'\L	.
8cJ 8B- 8C\	(16eee\L	.
.	16ggg\JJ	.
8c 8A 8F\	8fff\)	.
8r	8r	.
=21	=21	=21
.	(8qd/	.
!	!	!LO:DY:rj
8C\L	8c/L)	p
8B-J 8E\	8c/J	.
.	(8qa/	.
*rep	*	*
8C\L	4b-/)	.
8B-J 8E\	.	.
*Xrep	*	*
=22	=22	=22
8C\L	(8.g/L	.
8B-J 8E\	.	.
.	32a/LL	.
.	32g/JJJ)	.
4A 4F\	4f/	.
=23	=23	=23
8C\L	8e'/L	.
!LO:N:n=1:vis=8.	!	!
8B-J 8E\	8g'/	.
*rep	*	*
8C\L	(8dd/	.
8B-J 8E\	8cc/J)	.
*Xrep	*	*
=24	=24	=24
8C\L	8a'\L	.
8AJ 8F\	8cc'\	.
*rep	*	*
8C\L	(8gg\	.
8AJ 8F\	8ff\J)	.
*Xrep	*	*
!!LO:LB:g=original
=25	=25	=25
.	(8qd/	.
8C\L	8c/L)	.
8B-J 8E\	8c'/J	.
.	(8qa/	.
*rep	*	*
8C\L	4b-/)	.
8B-J 8E\	.	.
*Xrep	*	*
=26	=26	=26
8C\L	(8.g/L	.
8B-J 8E\	.	.
.	32a/LL	.
.	32g/JJJ	.
4A 4F\	4f/)	.
=27	=27	=27
8C\L	8e'/L	.
8cJ 8B- 8E\	8g'/	.
*rep	*	*
8C\L	(8dd/	.
8cJ 8B- 8E\	8cc/J)	.
*Xrep	*	*
=28	=28	=28
8F\L	16a/LL	.
.	16f/	.
8cJ 8A\	16a/	.
.	16cc/JJ	.
4F\	4ff 4cc 4a\	.
=29:|!	=29:|!	=29:|!
*>D	*>D	*>D
!	!	!LO:DY:rj
8D\L	8ffL 8dd 8a\	f
8dJ 8A 8F\	8ff\J	.
*rep	*	*
8D\L	4ddT\	.
8dJ 8A 8F\	.	.
.	(16qqcc#X/LL	.
.	16qqdd/JJ)	.
*Xrep	*	*
!!LO:LB:g=original
=30	=30	=30
8G\L	8eeL 8b- 8g/	.
8eJ 8B-\	8ee/J	.
*rep	*	*
8G\L	4b-T\	.
8eJ 8B-\	.	.
.	(16qqa/LL	.
.	16qqb-/JJ)	.
*Xrep	*	*
=31	=31	=31
8A\L	8a'\L	.
8gJ 8e\	(16cc#X\L	.
.	16ee\JJ)	.
*rep	*	*
8A\L	8aa\L	.
8gJ 8e\	8gg'\J	.
*Xrep	*	*
=32	=32	=32
8D\L	(16ff\LL	.
.	16ee\	.
8dJ 8A 8F\	16ff\	.
.	16ee\JJ)	.
*rep	*	*
8D\L	(8dd\L	.
8dJ 8A 8F\	8ddd\J)	.
*Xrep	*	*
=33	=33	=33
8BBn\L	8ggL 8dd 8g\	.
8dJ 8Bn 8G\	8gg\J	.
*rep	*	*
8BB\L	4ddT\	.
8dJ 8B 8G\	.	.
.	(16qqcc/LL	.
.	16qqdd/JJ)	.
*Xrep	*	*
=34	=34	=34
*^	*	*
4rFyy	8C\L	8eeL 8cc 8g\	.
.	8eJ 8c 8G\	8ee\J	.
4E/	8E\L	4ccT\	.
.	8cJ 8G\	.	.
*v	*v	*	*
.	(16qqbn/LL	.
.	16qqcc/JJ)	.
!!LO:PB:g=original
=35	=35	=35
8D\L	(16bn\LL	.
.	16cc\	.
8BnJ 8G 8F\	16dd\	.
.	16ee\JJ	.
8GG/L	16ff\LL	.
.	16gg\	.
8GJ 8F 8D/	16aa\	.
.	16bbn\JJ)	.
=36	=36	=36
8GL 8E 8C\	8ccc\L	.
8GJ 8D 8GG\	(16bbn\L	.
.	16ddd\JJ)	.
8G 8E 8C\	8ccc\	.
8r	8r	.
.	.	p
=37	=37	=37
.	(8qd/	.
8C\L	8c/L)	.
8B-J 8E\	8c'/J	.
.	(8qa/	.
*rep	*	*
8C\L	4b-/)	.
8B-J 8E\	.	.
*Xrep	*	*
=38	=38	=38
8C\L	(8.g/L	.
8B-J 8E\	.	.
.	32a/LL	.
.	32g/JJJ)	.
4A 4F\	4f/	.
!!LO:LB:g=original
=39	=39	=39
8C\L	8e'/L	.
8B-J 8E\	8g'/	.
*rep	*	*
8C\L	(8dd/	.
8B-J 8E\	8cc/J)	.
*Xrep	*	*
=40	=40	=40
8C\L	8a'\L	.
8AJ 8F\	8cc'\	.
*rep	*	*
8C\L	(8gg\	.
8AJ 8F\	8ff\J)	.
*Xrep	*	*
=41	=41	=41
.	(8qd/	.
8C\L	8c/L)	.
8B-J 8E\	8c'/J	.
.	(8qa/	.
*rep	*	*
8C\L	4b-/)	.
8B-J 8E\	.	.
*Xrep	*	*
=42	=42	=42
8C\L	(8.g/L	.
8B-J 8E\	.	.
.	32a/LL	.
.	32g/JJJ)	.
4A 4F\	4f/	.
=43	=43	=43
8C\L	8e'/L	.
8cJ 8B- 8G\	8g'/	.
*rep	*	*
8C\L	(8dd/	.
8cJ 8B- 8G\	8cc/J)	.
*Xrep	*	*
!!LO:LB:g=original
=44	=44	=44
8F\L	(16a/LL	.
.	16f/	.
8cJ 8A\	16a/	.
.	16cc/JJ)	.
4F\	4ff\	.
=45!|:	=45!|:	=45!|:
*>E	*>E	*>E
!	!	!LO:DY:rj
8dL 8A 8F#X\	8dddL 8dd\	f
8dJ 8A 8F#\	8dddJ 8dd\	.
4d 4A 4F#\	(8.aat\L	.
.	32gg#X\LL	.
.	32aa\JJJ)	.
=46	=46	=46
8dL 8B- 8G\	8bb-L 8b-\	.
8dJ 8B- 8G\	8bb-J 8b-\	.
4d 4B- 4G\	(8.ggT\L	.
.	32ff#X\LL	.
.	32gg\JJJ)	.
=47	=47	=47
8cL 8G 8E\	8cccL 8cc\	.
8cJ 8G 8E\	8cccJ 8cc\	.
4c 4G 4E\	(8.ggT\L	.
.	32ff#X\LL	.
.	32gg\JJJ)	.
!!LO:LB:g=original
=48	=48	=48
8cL 8A 8F\	8aaL 8a\	.
8cJ 8A 8F\	8aaJ 8a\	.
4c 4A 4F\	(8.ffT\L	.
.	32ee\LL	.
.	32ff\JJJ)	.
=49	=49	=49
8D\L	8bn'\L	.
8BnJ 8G 8F\	8b'\J	.
*rep	*	*
8D\L	4ffT\	.
8BJ 8G 8F\	.	.
.	(16qqee/LL	.
.	16qqff/JJ)	.
*Xrep	*	*
=50	=50	=50
8C\L	8ee'\L	.
8cJ 8G 8E\	8ee'\J	.
*rep	*	*
8C\L	4ccT\	.
8cJ 8G 8E\	.	.
.	(16qqbn/LL	.
.	16qqcc/JJ)	.
*Xrep	*	*
=51	=51	=51
!LO:TX:t=P:problem:mixed beam	!	!
8GG/L	8bn'\L	.
8BnJ 8G 8F 8D\	8dd'\	.
*rep	*	*
!LO:TX:t=P:problem:mixed beam	!	!
8GG/L	(8aa\	.
8BJ 8G 8F 8D\	8gg\J)	.
*Xrep	*	*
=52	=52	=52
8C\L	(16ee\LL	.
.	16cc\	.
8cJ 8G 8E\	16ee\	.
.	16gg\JJ	.
8C/	16ccc\LL	.
.	16bb-X\	.
8r	16gg\	.
.	16ee\JJ)	.
!!LO:LB:g=original
=53	=53	=53
.	(8qdd/	.
!	!	!LO:DY:rj
8C\L	8cc\L)	p
8cJ 8B- 8E\	8cc'\J	.
.	(8qaa/	.
*rep	*	*
8C\L	4bb-\)	.
8cJ 8B- 8E\	.	.
*Xrep	*	*
=54	=54	=54
8C\L	(8.gg\L	.
8cJ 8B- 8E\	.	.
.	32aa\LL	.
.	32gg\JJJ)	.
4c 4A 4F\	4ff\	.
=55	=55	=55
8C\L	8ee'\L	.
8cJ 8B- 8E\	8gg'\	.
*rep	*	*
8C\L	(8ddd\	.
8cJ 8B- 8E\	8ccc\J)	.
*Xrep	*	*
=56	=56	=56
8C\L	8aa'\L	.
8cJ 8A 8F\	8ccc'\	.
*rep	*	*
8C\L	(8ggg\	.
8cJ 8A 8F\	8fff\J)	.
*Xrep	*	*
=57	=57	=57
.	(8qdd/	.
8C\L	8cc\L)	.
8cJ 8B- 8E\	8cc'\J	.
.	(8qaa/	.
*rep	*	*
8C\L	4bb-\)	.
8cJ 8B- 8E\	.	.
*Xrep	*	*
!!LO:LB:g=original
=58	=58	=58
8C\L	(8.gg\L	.
8cJ 8B- 8E\	.	.
.	32aa\LL	.
.	32gg\JJJ)	.
4c 4A 4F\	4ff\	.
=59	=59	=59
8C\L	8ee'\L	.
8cJ 8B- 8E\	8gg'\	.
*rep	*	*
8C\L	(8ddd\	.
8cJ 8B- 8E\	8ccc\J)	.
*Xrep	*	*
=60	=60	=60
!	!	!LO:DY:rj
8F\L	(16aa\LL	f
.	16ff\	.
8cJ 8A\	16aa\	.
.	16ccc\JJ	.
!	!LO:TX:t=[segno]:problem:znak segno na kresce taktowej	!
4F\	4fff 4ff\)	.
!!LO:PB:g=original
=61:|!	=61:|!	=61:|!
*>F	*>F	*>F
!	!LO:TX:a:i:t=Coda.	!
8D\L	16fff\LL	.
.	(16ff\	.
8dJ 8A 8F\	16aa\	.
.	16ddd\JJ	.
*rep	*	*
8D\L	4fff 4ff\)	.
8dJ 8A 8F\	.	.
*Xrep	*	*
=62	=62	=62
8BB-\L	16ddd\LL	.
.	(16gg\	.
8B-J 8G 8D\	16bb-\	.
.	16ddd\JJ	.
*rep	*	*
8BB-\L	4ggg 4gg\)	.
8B-J 8G 8D\	.	.
*Xrep	*	*
=63	=63	=63
8C\L	(16ccc\LL	.
.	16bb-\	.
8cJ 8B- 8G\	16aa\	.
.	16gg\JJ	.
*rep	*	*
8C\L	16ff\LL	.
.	16ee\	.
8cJ 8B- 8G\	16dd\	.
.	16ee\JJ)	.
*Xrep	*	*
=64	=64	=64
!LO:TX:t=P:problem:mixed beam	!LO:TX:t=P:problem:mixed beam	!
8FF/L	16ff\LL	.
.	(16f/	.
8cJ 8A 8F\	16a/	.
.	16cc/JJ	.
*rep	*	*
!LO:TX:t=P:problem:mixed beam	!	!
8FF/L	8ffL 8cc 8a\)	.
8cJ 8A 8F\	8ffJ 8cc 8a'\	.
*Xrep	*	*
!!LO:LB:g=original
=65	=65	=65
!	!LO:TX:t=P:problem:mixed beam	!
8D\L	(16ff'>\LL	.
.	16f/	.
8dJ 8A 8F\	16a/	.
.	16cc/JJ	.
*rep	*	*
8D\L	8ffL 8dd 8a\)	.
8dJ 8A 8F\	8ffJ 8dd 8a'\	.
*Xrep	*	*
=66	=66	=66
8BB-\L	16dd'\LL	.
.	(16g\	.
8B-J 8G 8D\	16b-\	.
.	16dd\JJ	.
*rep	*	*
8BB-\L	8ggL 8dd 8b-\)	.
8B-J 8G 8D\	8ggJ 8dd 8b-'\	.
*Xrep	*	*
=67	=67	=67
8C\L	(16eeLL 16cc\	.
.	16ff 16dd\)	.
8cJ 8B- 8G\	16gg 16ee'\	.
.	16aaJJ 16ff'\	.
*rep	*	*
8C\L	16bb-LL 16gg'\	.
.	16ccc 16aa'\	.
8cJ 8B- 8G\	16ddd 16bb-'\	.
.	16eeeJJ 16gg'\	.
*Xrep	*	*
=68	=68	=68
8c 8A 8F\	8fff 8aa\	.
8r	8r	.
8cL 8A 8D\	16ff#X'\LL	.
.	(16dd\	.
8cJ 8A 8D\	16cc#X\	.
.	16dd\JJ)	.
!!LO:LB:g=original
=69	=69	=69
8B- 8G\	16gg'\LL	.
.	(16dd\	.
8r	16cc#X\	.
.	16dd\JJ)	.
8dL 8Bn 8E\	16gg#X'\LL	.
.	(16ee\	.
8dJ 8B 8E\	16dd#X\	.
.	16ee\JJ)	.
=70	=70	=70
8c 8A\	16aa'\LL	.
.	(16ee\	.
8r	16dd#X\	.
.	16ee\JJ)	.
8dL 8B-\	16gg'\LL	.
!	!LO:SIC:v:s=16ddn	!
.	(16dd#\	.
8dJ 8B-\	16b-\	.
!	!LO:SIC:v:s=16ddn	!
.	16dd#\JJ)	.
=71	=71	=71
8c\	16ffLL 16cc 16a'\	.
.	(16cc\	.
8r	16bn\	.
.	16cc\JJ)	.
8c 8A 8F 8C\	(16dd\LL	.
.	16cc\	.
8r	16b\	.
.	.	<
.	16cc\JJ)	.
=72	=72	=72
8c 8B- 8G 8C\	(16dd\LL	.
.	16cc\	.
8r	16bn\	.
.	16cc\JJ)	.
8c 8B- 8G 8C\	(16cc#X\LL	.
.	16dd\	.
8r	16dd#X\	.
.	16ee\JJ)	[
!!LO:LB:g=original
=73	=73	=73
!	!	!LO:DY:rj
8D-X\L	8ff\L	ff
8A-XJ 8F\	8fffJ 8ff\	.
*rep	*	*
8D-\L	4bbn 4bn\	.
8A-J 8F\	.	.
*Xrep	*	*
=74	=74	=74
8C\L	8cccL 8cc\	.
8A-XJ 8F\	8cccJ 8cc\	.
8BBn\L	4ddd 4dd\	.
8A-J 8F\	.	.
=75	=75	=75
.	(>8qcc/	.
8C\L	16ccc\LL	.
.	16bb-\	.
8AnJ 8F\	16aa\	.
.	16gg\JJ	.
*rep	*	*
8C\L	16ff\LL	.
.	16ee\	.
8AJ 8F\	16dd\	.
.	16cc\JJ)	.
*Xrep	*	*
=76	=76	=76
8C\L	(16ccc\LL	.
.	16bb-\	.
8B-J 8G\	16aa\	.
.	16gg\JJ	.
*rep	*	*
8C\L	16ff\LL	.
.	16ee\	.
8B-J 8G\	16dd\	.
.	16ee\JJ)	.
*Xrep	*	*
!!LO:LB:g=original
=77	=77	=77
8D-X\L	8ff'\L	.
8A-XJ 8F\	8fffJ 8ff'\	.
*rep	*	*
8D-\L	4bbn 4bn'\	.
8A-J 8F\	.	.
*Xrep	*	*
=78	=78	=78
8C\L	8cccL 8cc'\	.
8A-XJ 8F\	8cccJ 8cc'\	.
8BBn\L	4ddd 4dd'\	.
8A-J 8F\	.	.
=79	=79	=79
8BB-X\L	8eeeL 8ee'\	.
8GJ 8E 8C\	8eeeJ 8ee'\	.
8FL 8C 8AA\	(16ggg\LL	.
.	16fff\)	.
8GJ 8D 8BB-\	16ddd'\	.
.	16bb-'\JJ	.
=80	=80	=80
8AL 8F 8C\	(16aa\LL	.
.	16cc\)	.
8AJ 8F 8C\	16ff'\	.
.	16aa'\JJ	.
8CL 8CC/	8ccc\L	.
8CJ 8CC/	8eeJ 8cc 8b- 8g\	.
!!LO:LB:g=original
=81	=81	=81
4F 4FF/	4ff 4cc 4a 4f\	.
4r	4r	.
=82	=82	=82
4F 4FF/	4aa 4ff 4cc 4a\	.
8.r	8.r	.
16F 16FF/	16f 16c 16A/	.
=83	=83	=83
[2F [2FF/	[2f [>2c [2A/	.
=84	=84	=84
8F] 8FF/]	8f] 8c] 8A/]	.
8r	8r	.
4r	4r	.
==	==	==
*-	*-	*-
!!!system-decoration: {(p1)}
!!!RDF**kern: > = above
!!!RDF**kern: < = below
!!!ENC: Andrzej Kubiczek
!!!END: 2021-05-03
!!!ENC: Marcin Jachim
!!!END: 2021-04-09
